X: 2
T: Alle Br\"uder  [Dm]
M:C|
S:From Itzak Perlman "In the Fiddler's House"
R:Reel
Z:Spuds 3/7/03 SG
K:Dm
[| "Dm"A2d2 d2e2 | f3f e2d2 | "Dm"f4 "Gm"g4 |"Dm"f3f e2d2 |\
A2d2 d2e2 | f3f e2d2 | "Dm"f4 "A7"e4 | "Dm"d4 "C7"z4 |
| "F"c2f2 f2g2 | a3a g2f2 | "F"a4 "Bb"b4 | "F"a3a g2f2 |\
c2f2 f2g2 | a3a g2f2 | "F"f4 "A7"e4 | "Dm"d2y2 |]| a2 "(D7)"a2a2 |
| "Gm"g2zf (e4 | "A7"e2)g2 g2g2 | "Dm"f2ze (d4 | d2)f2 f2f2 |\
"A7"e4 A4 | "A7"a2g2 f2g2 | "Dm"(a8 | a)za2 "(D7)"a2a2 |
| "Gm"g2zf (e4 | "A7"e2)g2 g2g2 | "Dm"f2ze (d4 | d2)f2 f2f2 |\
"A7"e4 A4 | a2g2 f2e2 | "Dm"d4 "A7"A4 | "Dm"d6 z2 |]

%%sep 1 1 500

